X:6478
T:The Ace and Deuce of Pipering
O:england
M:2/4
L:1/8
C:unknown
S:Reavy's Corktown Book
R:Reel
K:G
|:1dc|B2 cA BdcA|BdcA BAGB|d2 e^c d2 ec|dfe^c dcBA|e2 fd ed^cB|Add^c d2
=cA|BGcA B2 AG|FGAB c2 BA| G2 (3gag) fdcA|FGAB cAFG|AGGF G2 FG|AGGF G2 :
||:GF| G2  =f2 e2 f2 | G2 =fg fdcA| G2 g2 ^f2 g2 |d2 ga gfdc|A (3=fgf) e
2 f2 |d^cde =fefg|ag^fa gfdc|BGcA B2 AG|G (3gag) fdcA|FGAB cAFG|AGGF G2
FG|AGGF G2 :|


